X: 279
T:Foot's Minuet. JaW.278
M:3/4
L:1/4
Q:60
S:James Winder Ms, Lancashire, 1835-41
R:Minuet
O:England
A:Wyresdale,Lancashire
H:1/4
Z:vmp.Chris Partington, Aug 2004
K:D
afa|agf|ede|fd/e/f/g/|afa|agf|ede|f3||!
fff|e/d/e/f/e/f/|ggg|f/e/f/g/f/g/|afa|agf|(g/f/)ec|d3|]
